sources/design/Outline/X.svg

<svg:svg xmlns:cc="http://creativecommons.org/ns#" xmlns:dc="http://purl.org/dc/elements/1.1/" xmlns:inkscape="http://www.inkscape.org/namespaces/inkscape" xmlns:rdf="http://www.w3.org/1999/02/22-rdf-syntax-ns#" xmlns:sodipodi="http://sodipodi.sourceforge.net/DTD/sodipodi-0.dtd" xmlns:svg="http://www.w3.org/2000/svg" xml:space="preserve" width="1000" height="1000" version="1.1" style="clip-rule:evenodd;fill-rule:evenodd;image-rendering:optimizeQuality;shape-rendering:geometricPrecision;text-rendering:geometricPrecision" viewBox="0 0 1000 1000" id="svg10" sodipodi:docname="X.svg" inkscape:version="1.1.1 (3bf5ae0d25, 2021-09-20)"><svg:metadata id="metadata14"><rdf:RDF><cc:Work rdf:about=""><dc:format>image/svg+xml</dc:format><dc:type rdf:resource="http://purl.org/dc/dcmitype/StillImage" /><dc:title /></cc:Work></rdf:RDF></svg:metadata><sodipodi:namedview pagecolor="#ffffff" bordercolor="#666666" borderopacity="1" objecttolerance="10" gridtolerance="10" guidetolerance="10" inkscape:pageopacity="0" inkscape:pageshadow="2" inkscape:window-width="1920" inkscape:window-height="1009" id="namedview12" showgrid="false" inkscape:zoom="0.84890884" inkscape:cx="508.29957" inkscape:cy="376.3655" inkscape:window-x="0" inkscape:window-y="0" inkscape:window-maximized="1" inkscape:current-layer="svg10" showguides="true" inkscape:guide-bbox="true" inkscape:document-rotation="0" inkscape:pagecheckerboard="0"><sodipodi:guide position="0,1000" orientation="0,1" id="guide16" inkscape:label="" inkscape:locked="true" inkscape:color="rgb(0,0,255)" /><sodipodi:guide position="1763.3122,2036.1693" orientation="1000,0" id="guide18" /><sodipodi:guide position="0,200" orientation="0,1" id="guide20" inkscape:label="base" inkscape:locked="true" inkscape:color="rgb(0,0,255)" /><inkscape:grid type="xygrid" id="grid24" originx="-473.37552" originy="-489.69235" /><sodipodi:guide position="0,0" orientation="0,1" id="guide34" inkscape:label="bottom" inkscape:locked="true" inkscape:color="rgb(0,0,255)" /><sodipodi:guide position="225.05109,1693.3186" orientation="0,1" id="guide44" inkscape:label="" inkscape:locked="false" inkscape:color="rgb(0,0,255)" /><sodipodi:guide position="0,900" orientation="0,1" id="guide46" inkscape:label="" inkscape:locked="true" inkscape:color="rgb(0,0,255)" /><sodipodi:guide position="508.01543,541.1056" orientation="1,0" id="guide841" inkscape:label="width" />    </sodipodi:namedview>
 <svg:defs id="defs4"><inkscape:path-effect effect="fillet_chamfer" id="path-effect856" is_visible="true" lpeversion="1" satellites_param="F,0,0,1,0,26.362542,0,1 @ F,0,0,1,0,23.726172,0,1 @ F,0,0,1,0,0,0,1 @ F,0,0,1,0,0,0,1 @ F,0,0,1,0,0,0,1 @ F,0,0,1,0,23.344307,0,1 @ F,0,0,1,0,13.634146,0,1 @ F,0,0,1,0,0,0,1 | F,0,0,1,0,15.038837,0,1 @ F,0,0,1,0,0,0,1 @ F,0,0,1,0,0,0,1 @ F,0,0,1,0,15.216085,0,1 @ F,0,0,1,0,29.964937,0,1 @ F,0,0,1,0,0,0,1 @ F,0,0,1,0,0,0,1 @ F,0,0,1,0,0,0,1 @ F,0,0,1,0,12.572472,0,1" unit="px" method="auto" mode="F" radius="0" chamfer_steps="1" flexible="false" use_knot_distance="true" apply_no_radius="true" apply_with_radius="true" only_selected="true" hide_knots="false" /><inkscape:path-effect effect="spiro" id="path-effect874" is_visible="true" lpeversion="1" /><inkscape:path-effect effect="spiro" id="path-effect855" is_visible="true" lpeversion="1" /><inkscape:path-effect effect="spiro" id="path-effect853" is_visible="true" lpeversion="1" /><inkscape:path-effect effect="spiro" id="path-effect928" is_visible="true" lpeversion="1" /><inkscape:path-effect effect="spiro" id="path-effect921" is_visible="true" lpeversion="1" /><inkscape:path-effect effect="spiro" id="path-effect917" is_visible="true" lpeversion="1" /><inkscape:path-effect effect="spiro" id="path-effect849" is_visible="true" lpeversion="1" /><inkscape:path-effect effect="spiro" id="path-effect851" is_visible="true" lpeversion="1" />
  <svg:style type="text/css" id="style2">
   
    .fil0 {fill:#EF7F1A;fill-rule:nonzero}
   
  </svg:style>
 <inkscape:path-effect effect="spiro" id="path-effect1214" is_visible="true" lpeversion="1" /><inkscape:path-effect effect="spiro" id="path-effect1195" is_visible="true" lpeversion="1" /><inkscape:path-effect effect="spiro" id="path-effect992" is_visible="true" lpeversion="1" /><inkscape:path-effect effect="spiro" id="path-effect1060" is_visible="true" lpeversion="1" /><inkscape:path-effect effect="spiro" id="path-effect1047" is_visible="true" lpeversion="1" /><inkscape:path-effect effect="spiro" id="path-effect1085" is_visible="true" lpeversion="1" /><inkscape:path-effect effect="spiro" id="path-effect1286" is_visible="true" lpeversion="1" /><inkscape:path-effect effect="spiro" id="path-effect117" is_visible="true" lpeversion="1" /></svg:defs>
 
<svg:g id="path853-3"><svg:path style="color:#000000;fill:#1a5fb4;fill-rule:nonzero;stroke-linecap:round;stroke-linejoin:round;-inkscape-stroke:none;paint-order:fill stroke markers" d="M 15.039063,-30.0 C 4.189760700000001,-30.0 -11.701326,-25.374256 -19.630859,-10.396484000000001 C -27.560392,4.581287499999998 -22.478209,20.261778 -16.414062,29.238281 C 13.400217,73.371112 41.837434,117.79127 65.992187,163.80078 C 101.42038,231.28372 133.63774,300.61094 164.35937,370.9082 C 115.1348,479.71814 67.657473,588.46278 11.605469,691.60352 C -1.6903714,716.06906 -16.662887,740.07496 -32.320312,764.11914 C -39.526180000000004,775.18476 -44.347828,792.54582 -35.869141,808.46289 C -27.390454,824.3799700000001 -10.166298999999999,830.08939 3.0722656000000015,830.20898 L 98.97070300000001,831.07617 C 122.12183000000002,831.2853200000001 138.95082000000002,818.66989 145.46484,796.60742 C 170.90214,710.45333 201.93619,625.96464 236.64062,542.71094 C 258.75706,596.6162400000001 280.75919,650.6930400000001 303.30859,704.64453 C 315.88311999999996,734.73023 327.61436,765.67263 339.94336,796.88672 C 348.60418,818.81385 365.24074,830.0 388.68555,830.0 L 514.76172,830.0 C 520.97398,830.0 526.92104,829.67278 534.32227,827.08203 C 541.72349,824.4912800000001 553.21773,817.3839300000001 557.26172,803.9179700000001 C 561.30571,790.4520100000001 556.15549,779.3322800000001 551.9921899999999,773.1464800000001 C 547.8288899999999,766.9606900000001 543.4541499999999,763.0920300000001 538.6484399999999,759.3203100000001 C 513.08517,739.2572 493.33936,714.93316 472.45703,686.83398 C 407.21596,599.04586 362.71891,494.04106 315.26172,389.51367 C 313.57979,385.80911 312.02306000000004,382.05442999999997 310.35547,378.34375 C 340.8513,314.21783 372.73886,250.63764 405.50195,187.55469 C 431.71745,137.07866 463.6383,88.639221 496.5,39.810547 C 504.31343,28.200702 509.63019,10.132053 500.79102,-6.4863281 C 491.95185,-23.104709 473.97925,-28.798828 459.98047,-28.798828 L 355.42969,-28.798828 C 326.05620999999996,-28.798828 303.67993,-5.974752500000001 300.20508,21.019531 C 295.91246,54.366615 282.53808000000004,91.904602 269.90430000000003,129.52344 C 261.27491000000003,155.21860999999998 251.09945000000005,180.61862 240.14258000000004,205.9707 C 229.10151,175.20822 218.78639,144.24905 209.52734,113.04297 C 199.39043,78.878192 191.9398,43.551154 186.18555,7.6738281 C 182.58116,-14.799241 165.04838,-30.0 142.06641,-30.0 L 15.039063,-30.0 M 56.134766,30.0 L 129.16797,30.0 C 134.93448999999998,63.520998 142.19678,97.042932 152.00781,130.10937 C 167.38743,181.94383000000002 185.33092,232.88422000000003 204.97266000000002,283.04102 C 202.55212000000003,288.18557 200.20181000000002,293.33013 197.77148000000003,298.49219 C 173.03909,243.72843 147.18249,189.36839 119.11719,135.91016 C 99.861381,99.232069 78.410434,64.143621 56.134766,30.0 M 359.32031,31.201172 L 430.11914,31.201172 C 402.67285000000004,72.470332 375.68102,114.79695 352.25586,159.90039000000002 C 327.27292,208.00321000000002 302.64988,256.49576 278.72461,305.42773 C 275.90486999999996,298.63887 273.06829999999997,291.85667 270.3125,285.04687 C 290.84308,240.99411 310.86223,196.03189000000003 326.7832,148.625 C 338.82201000000003,112.7778 353.55046000000004,73.074569 359.32031,31.201172 M 236.02148,358.52734 C 238.75119,364.87674 241.46299,371.2367 244.23633,377.56055 C 242.21783000000002,381.87347 240.18392,386.17544999999996 238.17969000000002,390.49609 C 235.47050000000002,384.14835 232.71537000000004,377.81523999999996 229.98242000000002,371.47461 C 231.94834000000003,367.17178 234.02476000000001,362.83495999999997 236.02148000000003,358.52734 L 236.02148,358.52734 M 196.41406,445.75780999999995 C 199.11918,452.18675999999994 201.80179,458.63411999999994 204.49219,465.07421999999997 C 160.90269,564.61384 121.92075,666.36731 90.556641,770.9980499999999 L 34.646484,770.49219 C 44.883549,754.12182 54.940353,737.51552 64.322266,720.25195 C 113.1588,630.38834 155.01161,537.76769 196.41406,445.75781 L 196.41406,445.75780999999995 M 276.94336,450.43749999999994 C 318.56048999999996,542.9525699999999 361.45238,638.05449 424.30078,722.6230499999999 C 436.18971,738.6207299999999 448.61346,754.6215299999999 462.65234,769.9999999999999 L 393.85155999999995,769.9999999999999 C 382.38208,740.8464099999999 371.07839999999993,711.2008899999998 358.66796999999997,681.5078099999998 C 328.82043,610.0948799999999 299.78276999999997,537.9617299999999 269.92968999999994,465.94335999999987 C 272.2416599999999,460.76531999999986 274.60675999999995,455.60667999999987 276.9433599999999,450.4374999999999 L 276.94336,450.43749999999994 M 392.23828,769.8710899999999 C 392.76811999999995,769.8452899999999 392.99787,769.9314899999998 393.28125,769.9999999999999 L 388.68555,769.9999999999999 C 390.34495,769.9999999999999 391.45939999999996,769.9089999999999 392.23828,769.8710899999999 M 394.12694999999997,770.7050799999998 C 394.48837,771.3613799999998 394.79657999999995,772.4368199999998 395.74805,774.8456999999999 C 395.20743999999996,773.4770099999998 394.66665,772.0761799999998 394.12694999999997,770.7050799999998" id="path26558" /></svg:g></svg:svg>

<svg:svg xmlns:cc="http://creativecommons.org/ns#" xmlns:dc="http://purl.org/dc/elements/1.1/" xmlns:inkscape="http://www.inkscape.org/namespaces/inkscape" xmlns:rdf="http://www.w3.org/1999/02/22-rdf-syntax-ns#" xmlns:sodipodi="http://sodipodi.sourceforge.net/DTD/sodipodi-0.dtd" xmlns:svg="http://www.w3.org/2000/svg" xml:space="preserve" width="1000" height="1000" version="1.1" style="clip-rule:evenodd;fill-rule:evenodd;image-rendering:optimizeQuality;shape-rendering:geometricPrecision;text-rendering:geometricPrecision" viewBox="0 0 1000 1000" id="svg10" sodipodi:docname="X.svg" inkscape:version="1.1.1 (3bf5ae0d25, 2021-09-20)"><svg:metadata id="metadata14"><rdf:RDF><cc:Work rdf:about=""><dc:format>image/svg+xml</dc:format><dc:type rdf:resource="http://purl.org/dc/dcmitype/StillImage" /><dc:title /></cc:Work></rdf:RDF></svg:metadata><sodipodi:namedview pagecolor="#ffffff" bordercolor="#666666" borderopacity="1" objecttolerance="10" gridtolerance="10" guidetolerance="10" inkscape:pageopacity="0" inkscape:pageshadow="2" inkscape:window-width="1920" inkscape:window-height="1009" id="namedview12" showgrid="false" inkscape:zoom="0.84890884" inkscape:cx="508.29957" inkscape:cy="376.3655" inkscape:window-x="0" inkscape:window-y="0" inkscape:window-maximized="1" inkscape:current-layer="svg10" showguides="true" inkscape:guide-bbox="true" inkscape:document-rotation="0" inkscape:pagecheckerboard="0"><sodipodi:guide position="0,1000" orientation="0,1" id="guide16" inkscape:label="" inkscape:locked="true" inkscape:color="rgb(0,0,255)" /><sodipodi:guide position="1763.3122,2036.1693" orientation="1000,0" id="guide18" /><sodipodi:guide position="0,200" orientation="0,1" id="guide20" inkscape:label="base" inkscape:locked="true" inkscape:color="rgb(0,0,255)" /><inkscape:grid type="xygrid" id="grid24" originx="-473.37552" originy="-489.69235" /><sodipodi:guide position="0,0" orientation="0,1" id="guide34" inkscape:label="bottom" inkscape:locked="true" inkscape:color="rgb(0,0,255)" /><sodipodi:guide position="225.05109,1693.3186" orientation="0,1" id="guide44" inkscape:label="" inkscape:locked="false" inkscape:color="rgb(0,0,255)" /><sodipodi:guide position="0,900" orientation="0,1" id="guide46" inkscape:label="" inkscape:locked="true" inkscape:color="rgb(0,0,255)" /><sodipodi:guide position="508.01543,541.1056" orientation="1,0" id="guide841" inkscape:label="width" />    </sodipodi:namedview>
 <svg:defs id="defs4"><inkscape:path-effect effect="fillet_chamfer" id="path-effect856" is_visible="true" lpeversion="1" satellites_param="F,0,0,1,0,26.362542,0,1 @ F,0,0,1,0,23.726172,0,1 @ F,0,0,1,0,0,0,1 @ F,0,0,1,0,0,0,1 @ F,0,0,1,0,0,0,1 @ F,0,0,1,0,23.344307,0,1 @ F,0,0,1,0,13.634146,0,1 @ F,0,0,1,0,0,0,1 | F,0,0,1,0,15.038837,0,1 @ F,0,0,1,0,0,0,1 @ F,0,0,1,0,0,0,1 @ F,0,0,1,0,15.216085,0,1 @ F,0,0,1,0,29.964937,0,1 @ F,0,0,1,0,0,0,1 @ F,0,0,1,0,0,0,1 @ F,0,0,1,0,0,0,1 @ F,0,0,1,0,12.572472,0,1" unit="px" method="auto" mode="F" radius="0" chamfer_steps="1" flexible="false" use_knot_distance="true" apply_no_radius="true" apply_with_radius="true" only_selected="true" hide_knots="false" /><inkscape:path-effect effect="spiro" id="path-effect874" is_visible="true" lpeversion="1" /><inkscape:path-effect effect="spiro" id="path-effect855" is_visible="true" lpeversion="1" /><inkscape:path-effect effect="spiro" id="path-effect853" is_visible="true" lpeversion="1" /><inkscape:path-effect effect="spiro" id="path-effect928" is_visible="true" lpeversion="1" /><inkscape:path-effect effect="spiro" id="path-effect921" is_visible="true" lpeversion="1" /><inkscape:path-effect effect="spiro" id="path-effect917" is_visible="true" lpeversion="1" /><inkscape:path-effect effect="spiro" id="path-effect849" is_visible="true" lpeversion="1" /><inkscape:path-effect effect="spiro" id="path-effect851" is_visible="true" lpeversion="1" />
  <svg:style type="text/css" id="style2">
   
    .fil0 {fill:#EF7F1A;fill-rule:nonzero}
   
  </svg:style>
 <inkscape:path-effect effect="spiro" id="path-effect1214" is_visible="true" lpeversion="1" /><inkscape:path-effect effect="spiro" id="path-effect1195" is_visible="true" lpeversion="1" /><inkscape:path-effect effect="spiro" id="path-effect992" is_visible="true" lpeversion="1" /><inkscape:path-effect effect="spiro" id="path-effect1060" is_visible="true" lpeversion="1" /><inkscape:path-effect effect="spiro" id="path-effect1047" is_visible="true" lpeversion="1" /><inkscape:path-effect effect="spiro" id="path-effect1085" is_visible="true" lpeversion="1" /><inkscape:path-effect effect="spiro" id="path-effect1286" is_visible="true" lpeversion="1" /><inkscape:path-effect effect="spiro" id="path-effect117" is_visible="true" lpeversion="1" /></svg:defs>
 
<svg:g id="path853-3"><svg:path style="color:#000000;fill:#1a5fb4;fill-rule:nonzero;stroke-linecap:round;stroke-linejoin:round;-inkscape-stroke:none" d="m 15.039063,-30 c -10.8493023,0 -26.740389,4.625744 -34.669922,19.603516 -7.929533,14.9777715 -2.84735,30.658262 3.216797,39.634765 C 13.400217,73.371112 41.837434,117.79127 65.992187,163.80078 101.42038,231.28372 133.63774,300.61094 164.35937,370.9082 115.1348,479.71814 67.657473,588.46278 11.605469,691.60352 c -13.2958404,24.46554 -28.268356,48.47144 -43.925781,72.51562 -7.205868,11.06562 -12.027516,28.42668 -3.548829,44.34375 8.478687,15.91708 25.702842,21.6265 38.9414066,21.74609 l 95.8984374,0.86719 c 23.151127,0.20915 39.980117,-12.40628 46.494137,-34.46875 25.4373,-86.15409 56.47135,-170.64278 91.17578,-253.89648 22.11644,53.9053 44.11857,107.9821 66.66797,161.93359 12.57453,30.0857 24.30577,61.0281 36.63477,92.24219 C 348.60418,818.81385 365.24074,830 388.68555,830 h 126.07617 c 6.21226,0 12.15932,-0.32722 19.56055,-2.91797 7.40122,-2.59075 18.89546,-9.6981 22.93945,-23.16406 4.04399,-13.46596 -1.10623,-24.58569 -5.26953,-30.77149 -4.1633,-6.18579 -8.53804,-10.05445 -13.34375,-13.82617 C 513.08517,739.2572 493.33936,714.93316 472.45703,686.83398 407.21596,599.04586 362.71891,494.04106 315.26172,389.51367 c -1.68193,-3.70456 -3.23866,-7.45924 -4.90625,-11.16992 C 340.8513,314.21783 372.73886,250.63764 405.50195,187.55469 431.71745,137.07866 463.6383,88.639221 496.5,39.810547 504.31343,28.200702 509.63019,10.132053 500.79102,-6.4863281 491.95185,-23.104709 473.97925,-28.798828 459.98047,-28.798828 H 355.42969 c -29.37348,0 -51.74976,22.8240755 -55.22461,49.818359 -4.29262,33.347084 -17.667,70.885071 -30.30078,108.503909 -8.62939,25.69517 -18.80485,51.09518 -29.76172,76.44726 C 229.10151,175.20822 218.78639,144.24905 209.52734,113.04297 199.39043,78.878192 191.9398,43.551154 186.18555,7.6738281 182.58116,-14.799241 165.04838,-30 142.06641,-30 Z m 41.095703,60 h 73.033204 c 5.76652,33.520998 13.02881,67.042932 22.83984,100.10937 15.37962,51.83446 33.32311,102.77485 52.96485,152.93165 -2.42054,5.14455 -4.77085,10.28911 -7.20118,15.45117 C 173.03909,243.72843 147.18249,189.36839 119.11719,135.91016 99.861381,99.232069 78.410434,64.143621 56.134766,30 Z m 303.185544,1.201172 h 70.79883 c -27.44629,41.26916 -54.43812,83.595778 -77.86328,128.699218 -24.98294,48.10282 -49.60598,96.59537 -73.53125,145.52734 -2.81974,-6.78886 -5.65631,-13.57106 -8.41211,-20.38086 20.53058,-44.05276 40.54973,-89.01498 56.4707,-136.42187 12.03881,-35.8472 26.76726,-75.550431 32.53711,-117.423828 z M 236.02148,358.52734 c 2.72971,6.3494 5.44151,12.70936 8.21485,19.03321 -2.0185,4.31292 -4.05241,8.6149 -6.05664,12.93554 -2.70919,-6.34774 -5.46432,-12.68085 -8.19727,-19.02148 1.96592,-4.30283 4.04234,-8.63965 6.03906,-12.94727 z m -39.60742,87.23047 c 2.70512,6.42895 5.38773,12.87631 8.07813,19.31641 -43.5895,99.53962 -82.57144,201.29309 -113.935549,305.92383 L 34.646484,770.49219 C 44.883549,754.12182 54.940353,737.51552 64.322266,720.25195 113.1588,630.38834 155.01161,537.76769 196.41406,445.75781 Z m 80.5293,4.67969 c 41.61713,92.51507 84.50902,187.61699 147.35742,272.18555 11.88893,15.99768 24.31268,31.99848 38.35156,47.37695 h -68.80078 c -11.46948,-29.15359 -22.77316,-58.79911 -35.18359,-88.49219 -29.84754,-71.41293 -58.8852,-143.54608 -88.73828,-215.56445 2.31197,-5.17804 4.67707,-10.33668 7.01367,-15.50586 z m 115.29492,319.43359 c 0.52984,-0.0258 0.75959,0.0604 1.04297,0.12891 h -4.5957 c 1.6594,0 2.77385,-0.091 3.55273,-0.12891 z m 1.88867,0.83399 c 0.36142,0.6563 0.66963,1.73174 1.6211,4.14062 -0.54061,-1.36869 -1.0814,-2.76952 -1.6211,-4.14062 z" id="path26476" /></svg:g></svg:svg>
